images/icons/lacation.svg

<svg width="16" height="16" viewBox="0 0 16 16" fill="none" xmlns="http://www.w3.org/2000/svg">
<path d="M8 1C5.24609 1 3 3.24609 3 6C3 6.77344 3.31641 7.62109 3.75391 8.51562C4.19141 9.41406 4.76172 10.3516 5.33594 11.207C6.47656 12.9219 7.61328 14.3164 7.61328 14.3164L8 14.793L8.38672 14.3164C8.38672 14.3164 9.52344 12.9219 10.668 11.207C11.2383 10.3516 11.8086 9.41406 12.2461 8.51562C12.6836 7.62109 13 6.77344 13 6C13 3.24609 10.7539 1 8 1ZM8 2C10.2148 2 12 3.78516 12 6C12 6.46875 11.7539 7.24609 11.3477 8.07812C10.9414 8.91406 10.3867 9.82031 9.83594 10.6562C8.91797 12.0312 8.29297 12.7891 8 13.1562C7.70703 12.7891 7.08203 12.0312 6.16406 10.6562C5.61328 9.82031 5.05859 8.91406 4.65234 8.07812C4.24609 7.24609 4 6.46875 4 6C4 3.78516 5.78516 2 8 2ZM8 5C7.44922 5 7 5.44922 7 6C7 6.55078 7.44922 7 8 7C8.55078 7 9 6.55078 9 6C9 5.44922 8.55078 5 8 5Z" fill="#E4B564"/>
</svg>

<svg width="16" height="16" fill="none" xmlns="http://www.w3.org/2000/svg"><path d="M8 1a5.01 5.01 0 00-5 5c0 .773.316 1.621.754 2.516.437.898 1.008 1.836 1.582 2.691a44.69 44.69 0 002.277 3.11l.387.476.387-.477s1.136-1.394 2.281-3.109c.57-.855 1.14-1.793 1.578-2.691C12.684 7.62 13 6.773 13 6c0-2.754-2.246-5-5-5zm0 1c2.215 0 4 1.785 4 4 0 .469-.246 1.246-.652 2.078-.407.836-.961 1.742-1.512 2.578-.918 1.375-1.543 2.133-1.836 2.5-.293-.367-.918-1.125-1.836-2.5-.55-.836-1.105-1.742-1.512-2.578C4.246 7.246 4 6.468 4 6c0-2.215 1.785-4 4-4zm0 3c-.55 0-1 .45-1 1s.45 1 1 1 1-.45 1-1-.45-1-1-1z" fill="#E4B564"/></svg>
